!!!OTL: Bundeslied vor der Schlacht.
!!!OTL-incipit: AHNUNGSGRAUEND TODESMUTIG
!!!COM: J. H. G. Bornhardt
!!!ARE: Europa, Mitteleuropa, Deutschland
!!!SCT: F0420
!!!TXL: @@DE
!!!YEM: Copyright 1995, estate of Helmut Schaffrath.
**kern	**text
*ICvox	*
*clefG2	*
!! Mixed meters:  4/4; 3/4
*M4/4	*
*met(c)	*
*k[b-e-a-]	*
*E-:	*
!LO:TX:a:t=Kraeftig.	!
!LO:TX:a:t=P:only the highest voice encoded:problem	!
{8b-/	Ahnungsgrauend,
8g	.
=1	=1
4e-	.
4g	.
4b-/	to-
4ee-/	-des-
=2	=2
8dd/L	-mu-
8ccJ	.
4cc/	-thig
4r}	.
{8a-	bricht
8g	der
=3	=3
4.f	gro-
8f	-ße
4.b-	Morgen
8a-	.
=4	=4
2g	an,
4r}	.
{8b-/	und
8g	die
=5	=5
4e-	Sonne,
4g	.
4b-/	kalt
4ee-/	und
=6	=6
8dd/L	blu-
8ccJ	.
4cc/	-tig,
4r}	.
{8a-	leuchtet
8g	.
=7	=7
4.f	un-
8f	-ſrer
4.b-	blut'gen
8a-	.
=8	=8
2g	Bahn!
4r}	.
{8f	Jn
8a	der
=9	=9
4.b-/	nächſten
8b-/	.
4.cc/	Stunde
8cc/	.
=10	=10
8dd/L	Schooße
8ccJ	.
4b-/	.
4r}	.
{8cc/	liegt
8dd/	das
=11	=11
4ee-/	Schickſal
4dd/	.
4cc/	ei-
4dd/	-ner
=12	=12
2b-	Welt;
4r}	.
{8b-/	und
8dd/	es
=13	=13
4.ee-/	ʒit-
8b-/	-tern
(>8a-X/L	ſchon
8g	.
8fJ)	.
8e-	die
=14	=14
4cc/	Loo-
4cc/	-ſe,
4r}	.
{8ee-/	und
8cc/	der
=15	=15
4.b-/	eh'r-
8g	-ne
(4b-/	Wür-
8a-)	.
8f	-fel
=16	=16
2e-	fällt!
2r}	.
=17	=17
*M3/4	*
!LO:TX:a:t=Schneller.	!
{4.g	Brü-
8g	-der,
4g	euch
=18	=18
(>4.b-/	mah-
8a-)	-ne
4g	die
=19	=19
(>4.f	dämmern-
8e-)	.
4f	-de
=20	=20
2g	Stunde,
4e-}	.
=21	=21
{4.g	mah-
8g	-ne
4g	euch
=22	=22
(>4.b-/	ernſt
8a-)	ʒu
4g	dem
=23	=23
(>4.f	hei-
8e-)	-li-
4f	-gen
=24	=24
2g	Bun-
4e-}	-de,
=25	=25
{4b-/	treu
4g	ſo
4b-/	ʒum
=26	=26
(>4ee-/	Tod,
4b-/)	wie
4g	ʒum
=27	=27
4b-/	Le-
4a-	-ben
4f	ge-
=28	=28
2g	-ſellt,
4r}	.
=29	=29
{4ee-/	treu,
4ee-/	ſo
4ee-/	ʒum
=30	=30
[>4ff/	Tod,
4ff/]	wie
4ff/	ʒum
=31	=31
4.dd/	Le-
8cc/	-ben
4dd/	ge-
=32	=32
2ee-/	-ſellt.
4r}	.
==	==
!!!AGN: Vaterlands -, Heimat - Lied, nationalistisch, Krieg
!!!ONB: ESAC (Essen Associative Code) Database: FINK
!!!AMT: irregular
!!!AIN: vox
!!!EED: Helmut Schaffrath
!!!EEV: 1.0
!!!RDF**kern: > = above
!!Text: Th. Koerner
!!!GTL: Vaterlands- und Heimathslieder.
!!!source: Musikalischer Hausschatz der Deutschen. Eine Sammlung von über 1000 Liedern und Gesängen mit Singstimmen und Klavierbegleitung. Leipzig, Litterarisches Verlags-Haus.
!!!page: 258
!!!URL-scan: https://www.digitale-sammlungen.de/en/view/bsb11144622?page=248,249
!!!ENC: Anna Maria Matuszewska
!!!EEV: 2024/07/31
*-	*-
